gama.ui.shared/icons_svg/dark/views/tabs/view.monitors.svg

<?xml version="1.0" encoding="UTF-8" standalone="no"?>
<!DOCTYPE svg PUBLIC "-//W3C//DTD SVG 1.1//EN" "http://www.w3.org/Graphics/SVG/1.1/DTD/svg11.dtd">
<svg xmlns="http://www.w3.org/2000/svg" xmlns:dc="http://purl.org/dc/elements/1.1/" version="1.1" xmlns:xl="http://www.w3.org/1999/xlink" viewBox="-675.35776 -2973.7685 24.75 24.75" width="24.75" height="24.75">
  <defs/>
  <g id="SOURCES" fill="none" stroke="none" stroke-dasharray="none" fill-opacity="1" stroke-opacity="1">
    <title>SOURCES</title>
    <g id="SOURCES_Dark">
      <title>Dark</title>
      <g id="Group_12694">
        <g id="Graphic_12681"/>
        <g id="Graphic_11037">
          <path d="M -663.68276 -2956.4935 L -662.28276 -2956.4935 L -662.28276 -2957.8935 L -663.68276 -2957.8935 Z M -664.38276 -2956.4935 L -664.38276 -2957.8935 L -668.23276 -2957.8935 C -669.19876 -2957.8935 -669.98276 -2958.6775 -669.98276 -2959.6435 L -669.98276 -2965.2435 C -669.98276 -2966.2095 -669.19876 -2966.9935 -668.23276 -2966.9935 L -657.73276 -2966.9935 C -656.76676 -2966.9935 -655.98276 -2966.2095 -655.98276 -2965.2435 L -655.98276 -2959.6435 C -655.98276 -2958.6775 -656.76676 -2957.8935 -657.73276 -2957.8935 L -661.58276 -2957.8935 L -661.58276 -2956.4935 L -660.53276 -2956.4935 C -660.33676 -2956.4935 -660.18276 -2956.3395 -660.18276 -2956.1435 C -660.18276 -2955.9475 -660.33676 -2955.7935 -660.53276 -2955.7935 L -665.43276 -2955.7935 C -665.62876 -2955.7935 -665.78276 -2955.9475 -665.78276 -2956.1435 C -665.78276 -2956.3395 -665.62876 -2956.4935 -665.43276 -2956.4935 Z M -668.23276 -2966.2935 C -668.81376 -2966.2935 -669.28276 -2965.8245 -669.28276 -2965.2435 L -669.28276 -2959.6435 C -669.28276 -2959.0625 -668.81376 -2958.5935 -668.23276 -2958.5935 L -657.73276 -2958.5935 C -657.15176 -2958.5935 -656.68276 -2959.0625 -656.68276 -2959.6435 L -656.68276 -2965.2435 C -656.68276 -2965.8245 -657.15176 -2966.2935 -657.73276 -2966.2935 Z" fill="#c0e0ff"/>
        </g>
      </g>
    </g>
  </g>
</svg>

<svg height="24.75" viewBox="-675.358 -2973.769 24.75 24.75" width="24.75" xmlns="http://www.w3.org/2000/svg"><path d="m-663.68276-2956.4935h1.4v-1.4h-1.4zm-.7 0v-1.4h-3.85c-.966 0-1.75-.784-1.75-1.75v-5.6c0-.966.784-1.75 1.75-1.75h10.5c.966 0 1.75.784 1.75 1.75v5.6c0 .966-.784 1.75-1.75 1.75h-3.85v1.4h1.05c.196 0 .35.154.35.35s-.154.35-.35.35h-4.9c-.196 0-.35-.154-.35-.35s.154-.35.35-.35zm-3.85-9.8c-.581 0-1.05.469-1.05 1.05v5.6c0 .581.469 1.05 1.05 1.05h10.5c.581 0 1.05-.469 1.05-1.05v-5.6c0-.581-.469-1.05-1.05-1.05z" fill="#c0e0ff"/></svg>
